X:1
T:I Love the Holy Bible
T:I Love the Holy Bible
T:James Ramsey Murray
T:Frances Jane (Fanny) Crosby, 1896
T:Public Domain Courtesy of the Cyber Hymnal™
C:James Ramsey Murray
Z:Public Domain
Z:Courtesy of the Cyber Hymnal™
%%score ( 1 2 ) 3
L:1/8
Q:1/4=110
M:4/4
K:G
V:1 treble 
V:2 treble 
V:3 bass 
V:1
 [Gd]2 | [Gd]3 [GB] G2 [FA]2 | [GB]4 [DG]2 D2 | [CE]3 [DG] [DF]2 [DG]2 | [DA]6 [Fd]2 | %5
w: 1.~I|love the Ho- ly|Bi- ble, Be-|cause there- in I|see How|
w: 2.~I|trust the Ho- ly|Bi- ble, It|is my Fa- ther’s|word, Where-|
w: 3.~I|read the Ho- ly|Bi- ble, And|take it for my|guide; And|
 [Gd]3 [GB] G2 [FA]2 | [GB]4 [DG]2 D2 | [CE]3 [EG] F2 [DA]2 | [DG]6 [GB]2 | %9
w: Je- sus came from|glo- ry To|show the way to|me; Oh,|
w: in are songs of|glad- ness That|car- ol like a|bird; I|
w: in its blest as-|sur- ance, Se-|cure- ly I will|hide; O,|
 [Fc]3 [GB] [DA]2 [FA]2 | [GB]2 [Fc]2 [Gd]2 [GB]2 | [Fc]3 [GB] [DA]2 [FA]2 | %12
w: how could I have|heard His call, Or|else have found the|
w: oft- en fal- ter,|this I know, But|oh, I love the|
w: that the whole wide|world might know, Whence|all our joys and|
 [GB]2 [Fc]2 [Gd]2 [Gd]2 | [Ge]4 [Gc]2 [Ge]2 | [Gd]4 [GB]2 [Gd]2 | [Gd]3 G [GB]2 [FA]2 | G6 |] %17
w: way at all? The|Bi- ble, the|Bi- ble! My|trea- sure and my|guide.|
w: Bi- ble so; The|Bi- ble, the|Bi- ble! My|trea- sure and my|guide.|
w: com- forts flow; The|Bi- ble, the|Bi- ble! My|trea- sure and my|guide.|
V:2
 x2 | x4 G2 x2 | x6 D2 | x8 | x8 | x4 G2 x2 | x6 D2 | x4 F2 x2 | x8 | x8 | x8 | x8 | x8 | x8 | x8 | %15
 x3 G x4 | G6 |] %17
V:3
 [G,B,]2 | [G,B,]3 [G,D] [B,,D]2 [D,D]2 | [G,D]4 [G,B,]2 [B,,G,]2 | %3
 [C,G,]3 [B,,G,] [A,,D,]2 [G,,G,]2 | [D,F,]6 [D,C]2 | [G,B,]3 [G,D] [B,,D]2 [D,D]2 | %6
 [G,D]4 [G,B,]2 [B,,G,]2 | [C,G,]3 [C,C] [D,A,]2 [D,C]2 | [G,B,]6 [G,D]2 | %9
 [A,D]3 [G,D] [F,D]2 [D,D]2 | [G,D]2 [A,D]2 [B,D]2 [G,D]2 | [A,D]3 [G,D] [F,D]2 [D,D]2 | %12
 [G,D]2 [A,D]2 [B,D]2 [G,B,]2 | [C,C]4 [E,C]2 [C,C]2 | [G,B,]4 [G,D]2 [G,B,]2 | %15
 [B,,D]3 [B,,D] [D,D]2 [D,C]2 | [G,,B,]6 |] %17

